material/.icons/material/wifi-strength-lock-outline.svg

<svg xmlns="http://www.w3.org/2000/svg" viewBox="0 0 24 24"><path d="M12 3C7.79 3 3.7 4.42.38 7 4.61 12.3 8.16 16.7 12 21.5c1.21-1.5 2.29-2.85 3.5-4.36V14.5c0-.2 0-.41.04-.61L12 18.3 3.27 7.44C5.91 5.85 8.92 5 12 5c3.07 0 6.08.86 8.71 2.45l-1.88 2.34c.54-.19 1.1-.29 1.67-.29.35 0 .7.04 1.05.12.66-.83 1.45-1.85 2.1-2.62C20.32 4.41 16.22 3 12 3m8.5 9c-1.4 0-2.5 1.1-2.5 2.5V16c-.5 0-1 .5-1 1v4c0 .5.5 1 1 1h5c.5 0 1-.5 1-1v-4c0-.5-.5-1-1-1v-1.5c0-1.4-1.1-2.5-2.5-2.5m0 1c.8 0 1.5.7 1.5 1.5V16h-3v-1.5c0-.8.7-1.5 1.5-1.5z"/></svg>

<?xml version="1.0" encoding="UTF-8"?><!DOCTYPE svg PUBLIC "-//W3C//DTD SVG 1.1//EN" "http://www.w3.org/Graphics/SVG/1.1/DTD/svg11.dtd"><svg xmlns="http://www.w3.org/2000/svg" xmlns:xlink="http://www.w3.org/1999/xlink" version="1.1" id="mdi-wifi-strength-lock-outline" width="24" height="24" viewBox="0 0 24 24"><path d="M12,3C7.79,3 3.7,4.42 0.38,7C4.61,12.3 8.16,16.7 12,21.5C13.21,20 14.29,18.65 15.5,17.14V14.5C15.5,14.3 15.5,14.09 15.54,13.89L12,18.3L3.27,7.44C5.91,5.85 8.92,5 12,5C15.07,5 18.08,5.86 20.71,7.45L18.83,9.79C19.37,9.6 19.93,9.5 20.5,9.5C20.85,9.5 21.2,9.54 21.55,9.62C22.21,8.79 23,7.77 23.65,7C20.32,4.41 16.22,3 12,3M20.5,12C19.1,12 18,13.1 18,14.5V16C17.5,16 17,16.5 17,17V21C17,21.5 17.5,22 18,22H23C23.5,22 24,21.5 24,21V17C24,16.5 23.5,16 23,16V14.5C23,13.1 21.9,12 20.5,12M20.5,13C21.3,13 22,13.7 22,14.5V16H19V14.5C19,13.7 19.7,13 20.5,13Z" /></svg>
